symbolic/16x16/panel/teamviewer-indicator-busy.svg

<svg xmlns="http://www.w3.org/2000/svg" width="16" height="16" version="1.1">
 <defs>
  <style id="current-color-scheme" type="text/css">
   .ColorScheme-Text { color:#323a41; } .ColorScheme-Highlight { color:#4285f4; } .ColorScheme-NeutralText { color:#ff9800; } .ColorScheme-PositiveText { color:#4caf50; } .ColorScheme-NegativeText { color:#f44336; }
  </style>
 </defs>
 <path style="fill:currentColor" class="ColorScheme-Text" d="M 8,1 A 7,7 0 0 0 1,8 7,7 0 0 0 8,15 7,7 0 0 0 10.004,14.705 C 9.9978,14.662 9.9867,14.621 9.9844,14.576 9.9636,14.169 10.149,13.718 10.453,13.426 L 11.379,12.5 10.451,11.572 C 10.262,11.39 10.148,11.16 10.078,10.922 L 10,11 V 9 H 6 V 11 L 3,8 6,5 V 7 H 10 V 5 L 13,8 11.932,9.0684 C 12.172,9.1421 12.394,9.2674 12.572,9.4512 L 13.5,10.379 14.432,9.4473 C 14.568,9.3077 14.73,9.1978 14.906,9.1211 A 7,7 0 0 0 15,8 7,7 0 0 0 8,1 Z M 11.494,9.9941 A 0.50005,0.50005 0 0 0 11.146,10.854 L 12.793,12.5 11.146,14.146 A 0.50063,0.50063 0 1 0 11.854,14.854 L 13.5,13.207 15.146,14.854 A 0.50063,0.50063 0 1 0 15.854,14.146 L 14.207,12.5 15.854,10.854 A 0.50005,0.50005 0 0 0 15.49,9.9961 0.50005,0.50005 0 0 0 15.146,10.146 L 13.5,11.793 11.854,10.146 A 0.50005,0.50005 0 0 0 11.494,9.9941 Z"/>
</svg>

<svg xmlns="http://www.w3.org/2000/svg" width="16" height="16"><defs><style id="current-color-scheme" type="text/css"></style></defs><path style="fill:currentColor;color:#323a41" d="M8 1a7 7 0 0 0-7 7 7 7 0 0 0 7 7 7 7 0 0 0 2.004-.295c-.006-.043-.017-.084-.02-.129-.02-.407.165-.858.469-1.15l.926-.926-.928-.928a1.453 1.453 0 0 1-.373-.65L10 11V9H6v2L3 8l3-3v2h4V5l3 3-1.068 1.068c.24.074.462.2.64.383l.928.928.932-.932c.136-.14.298-.25.474-.326A7 7 0 0 0 15 8a7 7 0 0 0-7-7zm3.494 8.994a.5.5 0 0 0-.348.86l1.647 1.646-1.647 1.646a.5.5 0 1 0 .708.708l1.646-1.647 1.646 1.647a.5.5 0 1 0 .708-.708L14.207 12.5l1.647-1.646a.5.5 0 0 0-.364-.858.5.5 0 0 0-.344.15L13.5 11.793l-1.646-1.647a.5.5 0 0 0-.36-.152z"/></svg>
